X: 36006
T: Savage Paddy
R: reel
M: 4/4
K: Adorian
|:EA, A,/A,/A, EA,GA,|EA,B,D EGDG|EA, ~A,2 B,CB,A,|G,A,B,D EGDG|
EA, A,/A,/A, EA,GA,|EA,B,A, G,A,B,D|GABA GEDG|1 E2DG EGDG:|2 E2 DB, A,B,CE||
|:A3 B cBAc|BGDB, G,2 B,D|~G3 A BddB|GDB,G, A,2 CE|
A3 B cBAc|BGEF GABA|~G3 D EGDG|1 GEDB, A,B,CE:|2 E2DG EGDG||

